app/img/photos/serv-4.svg

<svg width="64" height="64" viewBox="0 0 64 64" fill="none" xmlns="http://www.w3.org/2000/svg">
<path d="M22.6199 62.2604C23.4628 62.3744 31.4135 62.2707 31.9998 62.2604C32.5873 62.2707 40.5361 62.3744 41.3783 62.2604L41.2494 62.1159C41.2492 62.1154 41.2454 62.1077 41.2349 62.0923C41.2241 62.0763 41.2083 62.0555 41.1863 62.0296C41.1256 61.9581 41.0433 61.8773 40.9425 61.7876M22.6199 62.2604L22.6813 61.8091C22.7094 61.8412 22.738 61.8869 22.7533 61.9486C22.7663 62.0007 22.7642 62.0444 22.7597 62.0727C22.7553 62.0996 22.7485 62.1142 22.7485 62.1142C22.7485 62.1142 22.7485 62.1142 22.7485 62.1142C22.7487 62.1137 22.7525 62.1059 22.7629 62.0906C22.7738 62.0747 22.7895 62.0539 22.8115 62.028C22.8718 61.9569 22.9536 61.8766 23.0537 61.7876M22.6199 62.2604C21.7451 62.1414 22.6199 61.4412 23.7284 60.6259L24.0246 61.0287M22.6199 62.2604L22.681 61.8087M23.0537 61.7876C23.3534 61.7984 23.8032 61.806 24.3622 61.81C25.232 61.8161 26.3207 61.8135 27.4031 61.807C29.5679 61.7941 31.7002 61.7656 31.991 61.7605L31.9998 61.7604L32.0085 61.7605C32.3 61.7656 34.4321 61.7941 36.5965 61.807C37.6787 61.8135 38.7671 61.8161 39.6367 61.81C40.1942 61.806 40.6429 61.7984 40.9425 61.7876M23.0537 61.7876C23.2885 61.5789 23.6246 61.3229 24.0246 61.0287M23.0537 61.7876C22.8756 61.7811 22.7505 61.7735 22.6869 61.7649L22.681 61.8087M40.9425 61.7876C40.7078 61.579 40.3725 61.3231 39.974 61.0286L40.2711 60.6265M40.9425 61.7876L40.2711 60.6265M40.2711 60.6265L39.9749 61.0293C39.3288 60.5541 38.9729 59.9604 38.7795 59.4912C38.6826 59.2564 38.6252 59.0498 38.5915 58.8993C38.5747 58.8238 38.5637 58.7619 38.5568 58.7168C38.5533 58.6942 38.5508 58.6758 38.5491 58.662L38.548 58.6534M40.2711 60.6265C39.1627 59.8112 39.0436 58.5862 39.0436 58.5862M38.548 58.6534L38.5496 58.6635L39.0436 58.5862M38.548 58.6534L38.1997 56.427M38.548 58.6534L38.547 58.6447L38.5464 58.6387L38.5461 58.6364L38.546 58.6354L38.546 58.635C38.546 58.6348 38.546 58.6346 39.0436 58.5862M39.0436 58.5862L38.1997 56.427M38.1997 56.427L38.1336 56.0043L38.6276 55.927V56.427H38.1997ZM24.0246 61.0287L22.681 61.8087M24.0246 61.0287L22.681 61.8087M24.9534 58.5843L25.4473 58.6618L25.449 58.651L25.4501 58.6415L25.4507 58.6355L25.451 58.6332L25.4511 58.6322L25.4511 58.6317C25.4511 58.6315 25.4512 58.6313 24.9534 58.5843ZM25.3706 56.427H25.7983L25.8646 56.0046L25.3706 55.927V56.427Z" fill="white" stroke="black"/>
<path d="M27.7875 38.4121L27.7874 38.4122C25.1364 39.5091 21.925 39.7099 19.5644 39.5968C20.0774 39.4381 20.5062 39.2003 20.8739 38.8516C21.2891 38.4578 21.5956 37.9511 21.8681 37.3404C22.1383 36.735 22.3887 35.9945 22.6749 35.1135C23.1386 33.9016 23.9666 33.4179 24.8787 33.3462C25.8367 33.271 26.9344 33.652 27.8266 34.2912C28.7292 34.9379 29.3098 35.7657 29.3853 36.4867C29.4213 36.8308 29.3457 37.163 29.1188 37.4766C28.886 37.7982 28.4726 38.1288 27.7875 38.4121Z" fill="white" stroke="black"/>
<path d="M29.2412 30.0559L29.2514 30.0432L29.2608 30.0299L47.07 4.72689L47.2456 4.8673C47.6797 5.21445 47.9575 5.46025 48.1239 5.61587C48.207 5.69363 48.2621 5.74865 48.2947 5.78231C48.311 5.79913 48.3216 5.81058 48.3274 5.81683L48.3315 5.82134L48.3321 5.82201L48.3322 5.82214L48.3323 5.82231L48.3325 5.82247L48.9714 6.56427L49.1944 5.61484C49.1953 5.6117 49.1973 5.60516 49.2007 5.59538C49.2086 5.57219 49.2241 5.53065 49.2506 5.47298C49.3037 5.35784 49.4017 5.17701 49.5737 4.94852C49.917 4.4924 50.5616 3.83785 51.7481 3.13709L52.7249 2.56024C52.8453 2.62849 52.9601 2.70619 53.0683 2.79332C54.4814 3.93128 54.556 6.506 52.8649 8.61597L31.5155 31.8466L31.5045 31.8586L31.4944 31.8712C31.2919 32.1223 31.1227 32.3371 30.9767 32.5225C30.7874 32.7627 30.6371 32.9536 30.5038 33.11C30.3893 33.2444 30.308 33.328 30.2467 33.3795C30.2295 33.394 30.2159 33.4041 30.2057 33.4111C30.1777 33.3977 30.1248 33.3681 30.0378 33.3043C29.9146 33.2139 29.782 33.1027 29.6094 32.958C29.4706 32.8415 29.3058 32.7033 29.0992 32.5368L29.099 32.5366C28.8926 32.3705 28.7227 32.239 28.5795 32.1283C28.4011 31.9903 28.2642 31.8843 28.1497 31.7831C28.069 31.7119 28.0289 31.6666 28.0098 31.642C28.0145 31.6306 28.0215 31.6152 28.032 31.5954C28.0693 31.5245 28.1338 31.4273 28.2408 31.2869C28.3654 31.1233 28.5202 30.9357 28.715 30.6995C28.8651 30.5176 29.039 30.3068 29.2412 30.0559ZM51.4239 2.19573C51.4212 2.19549 51.4186 2.19525 51.4159 2.19502C51.6181 2.20516 51.8149 2.23301 52.0042 2.27855L51.5692 2.21227L51.4939 2.70657C51.5692 2.21227 51.569 2.21224 51.5687 2.2122L51.5682 2.21212L51.567 2.21194L51.5638 2.21148L51.5546 2.21018L51.5251 2.20635C51.5006 2.20335 51.4665 2.19955 51.4239 2.19573ZM30.2315 33.4215C30.2315 33.4215 30.231 33.4214 30.23 33.4211L30.2315 33.4215ZM27.9941 31.619C27.9942 31.619 27.9944 31.6195 27.9949 31.6204L27.9941 31.619Z" fill="white" stroke="black"/>
<path d="M60.6606 14.9671V14.4671H60.1606H51.0594L53.6698 11.6271H61.44C62.5776 11.6271 63.5 12.5495 63.5 13.6871V50.8071C63.5 51.9447 62.5776 52.8671 61.44 52.8671H2.56C1.42238 52.8671 0.5 51.9447 0.5 50.8071V13.6871C0.5 12.5495 1.42238 11.6271 2.56 11.6271H38.3437L36.3429 14.4671H3.84064H3.34064V14.9671V45.6871V46.1871H3.84064H60.1606H60.6606V45.6871V14.9671Z" fill="white" stroke="black"/>
</svg>

<svg width="64" height="64" viewBox="0 0 64 64" fill="none" xmlns="http://www.w3.org/2000/svg"><path d="M22.62 62.26c.843.114 8.793.01 9.38 0 .587.01 8.536.114 9.378 0l-.129-.144a.739.739 0 0 0-.063-.086 2.547 2.547 0 0 0-.243-.242m-18.323.472l.061-.45a.33.33 0 0 1 .079.263.169.169 0 0 1-.012.041l.015-.023a.78.78 0 0 1 .048-.063c.06-.071.143-.151.243-.24m-.434.472c-.875-.119 0-.819 1.108-1.634l.297.403M22.62 62.26l.061-.451m.373-.021c.3.01.75.018 1.308.022.87.006 1.959.003 3.041-.003a568.08 568.08 0 0 0 4.588-.047h.017c.292.006 2.424.034 4.588.047 1.083.006 2.171.01 3.04.003a49.553 49.553 0 0 0 1.306-.022m-17.888 0c.235-.21.57-.465.97-.76m-.97.76a4.646 4.646 0 0 1-.367-.023l-.006.044m18.262-.021a14.92 14.92 0 0 0-.969-.76l.297-.401m.672 1.16l-.672-1.16m0 0l-.296.402a3.601 3.601 0 0 1-1.196-1.538 3.657 3.657 0 0 1-.222-.774 1.802 1.802 0 0 1-.008-.055l-.001-.009m1.723 1.974a3.134 3.134 0 0 1-1.227-2.04m-.496.066l.002.01.494-.077m-.496.067l-.348-2.226m.348 2.226l-.001-.008v-.009h-.001v-.001l.498-.049m0 0l-.844-2.159m0 0l-.066-.423.494-.077v.5H38.2zm-14.175 4.602l-1.344.78m1.344-.78l-1.344.78m2.272-3.225l.494.078.002-.011.001-.01v-.005l.001-.003v-.001l-.498-.048zm.418-2.157h.427l.067-.422-.494-.078v.5zm2.417-18.015c-2.652 1.097-5.863 1.298-8.224 1.185a3.237 3.237 0 0 0 1.31-.745c.415-.394.722-.9.994-1.512.27-.605.52-1.346.807-2.227.464-1.211 1.292-1.695 2.204-1.767.958-.075 2.055.306 2.948.945.902.647 1.483 1.475 1.558 2.196.036.344-.04.676-.266.99-.233.321-.646.652-1.331.935zm1.453-8.356l.01-.013.01-.013L47.07 4.727l.176.14c.434.347.712.593.878.749.083.078.138.133.17.166l.033.035.005.004v.001l.64.742.222-.95a1.318 1.318 0 0 1 .056-.142c.054-.114.152-.295.324-.523.343-.457.988-1.111 2.174-1.812l.977-.577c.12.068.235.146.343.233 1.413 1.138 1.488 3.713-.203 5.823l-21.35 23.23-.01.013-.01.012c-.203.251-.372.466-.518.652-.19.24-.34.43-.473.587a2.38 2.38 0 0 1-.257.27.525.525 0 0 1-.041.031 1.116 1.116 0 0 1-.168-.107 8.778 8.778 0 0 1-.429-.346 32.022 32.022 0 0 0-1.03-.83 8.86 8.86 0 0 1-.43-.345 1.106 1.106 0 0 1-.14-.141.536.536 0 0 1 .023-.047c.037-.07.102-.168.209-.308.124-.164.28-.351.474-.587.15-.182.324-.393.526-.644zm22.183-27.86l-.008-.001a3.2 3.2 0 0 1 .588.084l-.435-.067-.075.495.075-.495h-.005l-.01-.002-.029-.004a3.158 3.158 0 0 0-.101-.01zM30.232 33.422h-.002.002zm-2.238-1.803v.001-.001z" fill="#fff" stroke="#000"/><path d="M60.66 14.967v-.5h-9.6l2.61-2.84h7.77a2.06 2.06 0 0 1 2.06 2.06v37.12a2.06 2.06 0 0 1-2.06 2.06H2.56a2.06 2.06 0 0 1-2.06-2.06v-37.12a2.06 2.06 0 0 1 2.06-2.06h35.784l-2.001 2.84H3.34v31.72h57.32v-31.22z" fill="#fff" stroke="#000"/></svg>
